svg/bold.svg

<svg xmlns="http://www.w3.org/2000/svg" viewBox="0 0 32 32"><path d="M16 7c2.8 0 5 2.2 5 5 0 1.3-.5 2.4-1.3 3.3 1.9.7 3.3 2.5 3.3 4.7 0 2.8-2.2 5-5 5H7V7h9m-7 8h7c1.7 0 3-1.3 3-3s-1.3-3-3-3H9v6m0 8h9c1.7 0 3-1.3 3-3s-1.3-3-3-3H9v6m7-18H5v22h13c3.9 0 7-3.1 7-7 0-2.1-1-4.1-2.5-5.4.3-.8.5-1.7.5-2.6 0-3.9-3.1-7-7-7zm-5 6h5c.6 0 1 .4 1 1s-.4 1-1 1h-5v-2zm0 8h7c.6 0 1 .4 1 1s-.4 1-1 1h-7v-2z"/></svg>

<svg xmlns="http://www.w3.org/2000/svg" viewBox="0 0 32 32" enable-background="new 0 0 32 32"><path d="M16,7c2.8,0,5,2.2,5,5c0,1.3-0.5,2.4-1.3,3.3C21.6,16,23,17.8,23,20c0,2.8-2.2,5-5,5H7V7H16 M9,15h7c1.7,0,3-1.3,3-3 s-1.3-3-3-3H9V15 M9,23h9c1.7,0,3-1.3,3-3s-1.3-3-3-3H9V23 M16,5H7H5v2v18v2h2h11c3.9,0,7-3.1,7-7c0-2.1-1-4.1-2.5-5.4 c0.3-0.8,0.5-1.7,0.5-2.6C23,8.1,19.9,5,16,5L16,5z M11,11h5c0.6,0,1,0.4,1,1s-0.4,1-1,1h-5V11L11,11z M11,19h7c0.6,0,1,0.4,1,1 s-0.4,1-1,1h-7V19L11,19z"/></svg>
